X: 31688
T: Pasacáis Del Xarreru
R: jig
M: 6/8
K: Gmajor
|:D2B BAB|c2A AGE|D2A AGA|B2A AGE|
D2B BAB|c3 ABc|ded cBA|GGG GGE:|
|:d2B d2B|dcB ABc|DEG ABc|BAG d2d|
d2B d2B|dcB ABc|DEG cBA|GGG GGd:|

